material/.icons/material/pen-off.svg

<svg xmlns="http://www.w3.org/2000/svg" viewBox="0 0 24 24"><path d="M2.3 5L1 6.3l6.5 6.5L3 17.2V21h3.8l4.5-4.5 6.5 6.5 1.3-1.3L2.3 5m14.6 5.9l-3.8-3.8L17 3.3c.4-.4 1-.4 1.4 0l2.3 2.3c.4.4.4 1 0 1.4-.3.4-.7.7-.7 1 0 .3.3.7.6 1 .5.5 1 1 .9 1.4 0 .5-.5 1-1 1.5L16.4 16 15 14.7l4.2-4.2-1-1-1.3 1.4m-6.9-.7l2.5-2.5 3.8 3.8-2.5 2.5-3.8-3.8z"/></svg>

<?xml version="1.0" encoding="UTF-8"?><!DOCTYPE svg PUBLIC "-//W3C//DTD SVG 1.1//EN" "http://www.w3.org/Graphics/SVG/1.1/DTD/svg11.dtd"><svg xmlns="http://www.w3.org/2000/svg" xmlns:xlink="http://www.w3.org/1999/xlink" version="1.1" id="mdi-pen-off" width="24" height="24" viewBox="0 0 24 24"><path d="M2.3,5L1,6.3L7.5,12.8L3,17.2V21H6.8L11.3,16.5L17.8,23L19.1,21.7L2.3,5M16.9,10.9L13.1,7.1L17,3.3C17.4,2.9 18,2.9 18.4,3.3L20.7,5.6C21.1,6 21.1,6.6 20.7,7C20.4,7.4 20,7.7 20,8C20,8.3 20.3,8.7 20.6,9C21.1,9.5 21.6,10 21.5,10.4C21.5,10.9 21,11.4 20.5,11.9L16.4,16L15,14.7L19.2,10.5L18.2,9.5L16.9,10.9M10,10.2L12.5,7.7L16.3,11.5L13.8,14L10,10.2Z" /></svg>
